!!!!SEGMENT: pl-kk--kk-i-7--009_anonim--agnus-dei.krn
!!!cenid: 16xx:799
!!!COM: Anonim
!!!COM-rismID: pe30004985
!!!CDT:
!!!CNT:
!!!OTL: Agnus Dei
!!!PDT:
!!!AGN: Sacred
!!!SMS-siglum: PL-Kk
!!!SMS-shelfmark: Kk.I.7
!!!SMS-shelfwork: 009 W
!!!SMS-variant:
!!!SMS-altvar:
!!!NIFC-rismSourceID: 300258086
!!!NIFC-islandoraID: pl-kk:1956
!!!URL-pdf-islandora: https://repozytorium.nifc.pl/islandora/object/pl-kk%3A1956/datastream/PDF/view
!!!URL-scan: https://polish.musicsources.pl/pl/lokalizacje/galeria/rekopisy/6140 @EN{Scan on Polish Music Sources Website} @PL{Skany w portalu Dziedzictwo Muzyki Polskiej w otwartym dostępie}
!!!ONB-nifc: UWAGA: C (skan 0007-0008, s.9-10), A (0094-0095, s.9-10), T(0172, s.8), B(0260, s.10). Następny utwór: Ecce virgo
!!!AIN: 1 alto 1 bass 1 soprn 1 tenor
!!!key:
**kern	**text	**kern	**text	**kern	**text	**kern	**text
*part4	*part4	*part3	*part3	*part2	*part2	*part1	*part1
*staff4	*staff4	*staff3	*staff3	*staff2	*staff2	*staff1	*staff1
*Ibass	*	*Itenor	*	*Ialto	*	*Isoprn	*
*I"[BASSVS.]	*	*I"[TENOR.]	*	*I"[ALTVS.]	*	*I"[CANTVS.]	*
*I'B.	*	*I'T.	*	*I'A.	*	*I'C.	*
*clefF4	*	*clefC4	*	*clefC4	*	*clefC3	*
*k[b-]	*	*k[b-]	*	*k[b-]	*	*k[b-]	*
*F:	*	*F:	*	*F:	*	*F:	*
*M2/1	*	*M2/1	*	*M2/1	*	*M2/1	*
*met(C|)	*	*met(C|)	*	*met(C|)	*	*met(C|)	*
=1-	=1-	=1-	=1-	=1-	=1-	=1-	=1-
!	!	!	!	!	!	!LO:TX:t=P:problem=kreska pseudotaktowa	!
*2\right	*	*lig	*	*lig	*	*	*
2.F\	A-	1c\	A-	1A\	A-	0f\	A-
!LO:TX:t=P:problem=kreska pseudotaktowa	!	!	!	!	!	!	!
4F\	-gn(us)	.	.	.	.	.	.
4D/	De-	1d\	.	1B-\	.	.	.
4BB-/	.	.	.	.	.	.	.
4D/	.	.	.	.	.	.	.
!LO:TX:t=P:problem=kreska pseudotaktowa	!	!	!	!	!	!	!
4E\	.	.	.	.	.	.	.
*	*	*Xlig	*	*Xlig	*	*	*
=2-	=2-	=2-	=2-	=2-	=2-	=2-	=2-
*	*	*lig	*	*	*	*2\right	*
!	!	!	!	!LO:TX:t=P:problem=kreska pseudotaktowa	!	!LO:TX:a:t=P:all\right:problem	!
1.F\	.	1c\	.	1A\	-gnus	2f\	-gnus
.	.	.	.	.	.	1a\	De-
.	.	1A\	.	2.F/	.	.	.
!LO:SIC:o:v=przekreślona cała nuta	!	!	!	!	!	!	!
1D\	.	.	.	.	.	1f\	.
.	.	.	.	4D/	De-	.	.
*	*	*Xlig	*	*	*	*	*
=3-	=3-	=3-	=3-	=3-	=3-	=3-	=3-
*	*	*lig	*	*	*	*	*
.	.	1F/	.	4d\	.	.	.
.	.	.	.	4e\	.	.	.
!LO:SIC:o:v=przekreślona cała nuta	!	!	!	!	!	!	!
1BB-/	.	.	.	1f\	.	1d\	.
.	.	1G/	.	.	.	.	.
*	*	*	*	*2\right	*	*	*
!LO:TX:t=P:problem=kreska pseudotaktowa	!	!	!	!LO:TX:t=P:problem=kreska pseudotaktowa	!	!LO:TX:t=P:problem=kreska pseudotaktowa	!
2C/	.	.	.	2e\	.	2c\	.
*	*	*Xlig	*	*	*	*	*
=4-	=4-	=4-	=4-	=4-	=4-	=4-	=4-
*	*	*lig	*	*	*	*	*
2D/	.	1A\	.	2f,\	-i	2A/	-i
*	*	*	*	*	*	*	*ij
!	!	!	!	!LO:TX:t=P:problem=kreska pseudotaktowa	!	!	!
2AA/	.	.	.	2c\	De-	1f\	De-
2BB-/	.	1G/	.	2d\	.	.	.
!LO:TX:t=P:problem=kreska pseudotaktowa	!	!	!	!	!	!LO:TX:t=P:problem=kreska pseudotaktowa	!
2C/	.	.	.	2c\	.	2e\	.
*	*	*Xlig	*	*	*	*	*
=5-	=5-	=5-	=5-	=5-	=5-	=5-	=5-
!	!	!LO:TX:t=P:problem=kreska pseudotaktowa	!	!LO:TX:t=P:problem=kreska pseudotaktowa	!	!	!
2FF/	-i	1F/	-gnus	1c\	-i	2f\	.
2F\	qui	.	.	.	.	1a\	.
*	*	*lig	*	*	*	*	*
2D/	.	1B-\	De-	1d\	Qui	.	.
!LO:TX:t=P:problem=kreska pseudotaktowa	!	!	!	!	!	!	!
2E\	tol-	.	.	.	.	1g\	.
=6-	=6-	=6-	=6-	=6-	=6-	=6-	=6-
4F\	-lis	1A\	.	2c\	.	.	.
4E\	.	.	.	.	.	.	.
4D/	.	.	.	1d\	tol-	1f\	.
4C/	.	.	.	.	.	.	.
*	*	*Xlig	*	*	*	*	*
*	*	*lig	*	*	*	*	*
2BB-/	pec-	1G/	.	.	.	.	.
!LO:TX:t=P:problem=kreska pseudotaktowa	!	!	!	!	!	!LO:TX:t=P:problem=kreska pseudotaktowa	!
2C/	.	.	.	4c\	.	2e\	.
!	!	!	!	!LO:TX:t=P:problem=kreska pseudotaktowa	!	!	!
.	.	.	.	4B-/	.	.	.
=7-	=7-	=7-	=7-	=7-	=7-	=7-	=7-
4FF/	-ca-	1A\	.	4A/	.	2f\	.
4GG/	.	.	.	4G/	.	.	.
4AA/	.	.	.	1F/	.	2c/	.
4FF/	.	.	.	.	.	.	.
*	*	*Xlig	*	*	*	*	*
*	*	*lig	*	*	*	*	*
2BB-/	-ta	1G/	-i	.	.	2d\	.
!	!	!	!	!LO:TX:t=P:problem=kreska pseudotaktowa	!	!LO:TX:t=P:problem=kreska pseudotaktowa	!
2C/	mun-	.	.	2E/	.	2c/	.
=8-	=8-	=8-	=8-	=8-	=8-	=8-	=8-
*	*	*custos:f	*	*	*	*	*
!LO:TX:t=P:problem=kreska pseudotaktowa	!	!LO:TX:t=P:problem=kreska pseudotaktowa	!	!	!	!	!
!	!	!	!	!	!	!LO:TX:t=P:problem=kreska pseudotaktowa	!
1FF/	-di	1F/	.	2A,/	-lis	1c\	-i
.	.	.	.	2F/	pec-	.	.
*	*	*Xlig	*	*	*	*	*Xij
!	!	!LO:LB:g=original	!	!	!	!	!
*	*	*lig	*	*	*	*	*
1r	.	1F/	qui	4A/	-ca-	1r	.
.	.	.	.	4G/	.	.	.
.	.	.	.	4A/	.	.	.
!	!	!	!	!LO:TX:t=P:problem=kreska pseudotaktowa	!	!	!
.	.	.	.	4B-/	.	.	.
=9-	=9-	=9-	=9-	=9-	=9-	=9-	=9-
1FF/	qui	1A\	.	1c\	.	2f\	qui
.	.	.	.	.	.	1f\	tol-
*	*	*Xlig	*	*	*	*	*
*	*	*lig	*	*	*	*	*
4AA/	tol-	1c\	tol-	2c\	-ta	.	.
4BB-/	.	.	.	.	.	.	.
!	!	!	!	!	!	!LO:TX:t=P:problem=kreska pseudotaktowa	!
4C/	.	.	.	1c\	mun-	2e\	.
8D/L	.	.	.	.	.	.	.
*custos:f	*	*	*	*	*	*	*
!LO:TX:t=P:problem=kreska pseudotaktowa	!	!	!	!	!	!	!
8E/J	.	.	.	.	.	.	.
=10-	=10-	=10-	=10-	=10-	=10-	=10-	=10-
2F\	.	1d\	.	.	.	2a\	.
!	!	!	!	!LO:TX:t=P:problem=kreska pseudotaktowa	!	!	!
!	!	!	!	!LO:N:acc=#	!	!	!
2G\	.	.	.	2Bn\	.	2g\	.
*	*	*Xlig	*	*	*	*	*
*	*	*lig	*	*	*	*	*
!	!	!	!	!	!	!LO:TX:t=P:global:problem=oddech jako rozdzielacz słów, przeważnie na wysokości dźwięku poprzedzającego	!
2C/	-lis	1e\	.	1c\,	-di	1g\,	-lis
!LO:TX:t=P:problem=kreska pseudotaktowa	!	!	!	!	!	!	!
2E\	pec-	.	.	.	.	.	.
=11-	=11-	=11-	=11-	=11-	=11-	=11-	=11-
*	*	*	*	*custos:d	*	*custos:a	*
!	!	!	!	!LO:TX:t=P:problem=kreska pseudotaktowa	!	!LO:TX:t=P:problem=kreska pseudotaktowa	!
4G\	-ca-	1d\	.	1B-\	pec-	0g\	pec-
4A\	.	.	.	.	.	.	.
2B-\	.	.	.	.	.	.	.
!	!	!	!	!LO:LB:g=original	!	!	!
*	*	*Xlig	*	*	*	*	*
2G\	.	1B-\	.	2.d\	-ca-	.	.
!LO:TX:t=P:problem=kreska pseudotaktowa	!	!	!	!	!	!	!
2B-\	.	.	.	.	.	.	.
!	!	!	!	!LO:TX:t=P:problem=kreska pseudotaktowa	!	!	!
.	.	.	.	4e\	.	.	.
!	!	!	!	!	!	!LO:LB:g=original	!
=12-	=12-	=12-	=12-	=12-	=12-	=12-	=12-
!	!	!LO:TX:t=P:problem=kreska pseudotaktowa	!	!	!	!	!
4A\	.	1c\	-lis	1.f\	.	1.a\	-ca-
4G\	.	.	.	.	.	.	.
4F\	.	.	.	.	.	.	.
4E\	.	.	.	.	.	.	.
!LO:TX:t=P:problem=kreska pseudotaktowa	!	!	!	!	!	!	!
1D\	.	1f\	pec-	.	.	.	.
.	.	.	.	1d\	.	1f\	-ta
=13-	=13-	=13-	=13-	=13-	=13-	=13-	=13-
2BB-,/	-ta	1d\	-ca-	.	.	.	.
!LO:TX:t=P:problem=kreska pseudotaktowa	!	!	!	!LO:TX:t=P:problem=kreska pseudotaktowa	!	!LO:TX:t=P:problem=kreska pseudotaktowa	!
2D/	pec-	.	.	2A/	-ta	2f\	pec-
!	!	!LO:TX:t=P:problem=kreska pseudotaktowa	!	!	!	!	!
4AA/	-ca-	1f\	-ta	0c\	pec-	1a\	-ca-
4GG/	.	.	.	.	.	.	.
4AA/	.	.	.	.	.	.	.
!LO:TX:t=P:problem=kreska pseudotaktowa	!	!	!	!	!	!	!
4BB-/	.	.	.	.	.	.	.
=14-	=14-	=14-	=14-	=14-	=14-	=14-	=14-
*	*	*lig	*	*	*	*	*
4C/	.	1e\	mun-	.	.	1g\	-ta
4D/	.	.	.	.	.	.	.
4E/	.	.	.	.	.	.	.
4C/	.	.	.	.	.	.	.
4D\	.	1f\	.	2A/	-ca-	4f\	mun-
4E\	.	.	.	.	.	4g\	.
*	*	*	*	*lig	*	*	*
4F\	.	.	.	1d\	-ta	1a\	.
!LO:TX:t=P:problem=kreska pseudotaktowa	!	!	!	!	!	!	!
4G\	.	.	.	.	.	.	.
*	*	*Xlig	*	*	*	*	*
=15-	=15-	=15-	=15-	=15-	=15-	=15-	=15-
2A\	.	1e\	.	.	.	.	.
!	!	!	!	!	!	!LO:TX:t=P:problem=kreska pseudotaktowa	!
2E\	.	.	.	1c\	.	2g\	.
*	*	*lig	*	*	*	*	*
2F\	.	1d\	.	.	.	2a\	-di
*	*	*	*	*Xlig	*	*	*
*	*	*	*	*lig	*	*	*
!LO:TX:t=P:problem=kreska pseudotaktowa	!	!	!	!	!	!	!
2G\	.	.	.	1B-\	mun-	2.g\	mi-
=16-	=16-	=16-	=16-	=16-	=16-	=16-	=16-
2E\	.	1c\	.	.	.	.	.
.	.	.	.	.	.	4g\	-ſe-
2F\	-ta	.	.	1A\	.	1c\	-re-
*	*	*Xlig	*	*Xlig	*	*	*
2D/	mud-	1d\	.	.	.	.	.
!LO:TX:t=P:problem=kreska pseudotaktowa	!	!	!	!LO:TX:t=P:problem=kreska pseudotaktowa	!	!LO:TX:t=P:problem=kreska pseudotaktowa	!
!	!	!	!	!	!	!LO:TX:a:t=P:problem=n above	!
2G\	.	.	.	2G/	.	2BnX/	.
=17-	=17-	=17-	=17-	=17-	=17-	=17-	=17-
!	!	!LO:TX:t=P:problem=kreska pseudotaktowa	!	!	!	!	!
1C/	-di	1c\	-di	1G/	-di	1c\	re
1AA/	mi-	1f\	mi-	4A/	mi-	1c\	no-
.	.	.	.	4F/	-ſe-	.	.
.	.	.	.	2.c\	-re-	.	.
=18-	=18-	=18-	=18-	=18-	=18-	=18-	=18-
*	*	*lig	*	*	*	*	*
2FF/	-ſe-	1f\	-ſe-	.	.	2A/	-bis
.	.	.	.	4B-\	.	.	.
1F\	-re-	.	.	4A/	.	1a\	mi-
!	!	!	!	!LO:TX:t=P:problem=kreska pseudotaktowa	!	!	!
.	.	.	.	4G/	.	.	.
.	.	1c\	.	4A/	.	.	.
.	.	.	.	4B-\	.	.	.
!LO:TX:t=P:problem=kreska pseudotaktowa	!	!	!	!	!	!LO:TX:t=P:problem=kreska pseudotaktowa	!
2E\	.	.	.	2.c\	.	2g\	-ſe-
*custos:f	*	*	*	*	*	*	*
*	*	*Xlig	*	*	*	*	*
!LO:LB:g=original	!	!	!	!	!	!	!
=19-	=19-	=19-	=19-	=19-	=19-	=19-	=19-
*	*	*lig	*	*	*	*	*
2.F\	.	1A\	-re-	.	.	1.f\	-re-
.	.	.	.	4B-\	.	.	.
.	.	.	.	2.A\	.	.	.
!LO:TX:t=P:problem=kreska pseudotaktowa	!	!	!	!	!	!	!
4E\	.	.	.	.	.	.	.
2.D/	.	1F/	.	.	.	.	.
.	.	.	.	8B-\L	.	.	.
.	.	.	.	8c\J	.	.	.
.	.	.	.	1d\	.	1d\	-re
!LO:TX:t=P:problem=kreska pseudotaktowa	!	!	!	!	!	!	!
4C/	.	.	.	.	.	.	.
*	*	*Xlig	*	*	*	*	*
=20-	=20-	=20-	=20-	=20-	=20-	=20-	=20-
*	*	*lig	*	*	*	*	*
4BB-/	.	1B-\	-re	.	.	.	.
4AA/	.	.	.	.	.	.	.
!LO:TX:t=P:problem=kreska pseudotaktowa	!	!	!	!LO:TX:t=P:problem=kreska pseudotaktowa	!	!	!
2GG/	.	.	.	2d\	-re	1g\	no-
!	!	!LO:TX:t=P:problem=kreska pseudotaktowa	!	!	!	!	!
2C/	.	1A\	.	4.e-X\	mi-	.	.
.	.	.	.	8e-\	-ſe-	.	.
!	!	!	!	!	!	!LO:TX:t=P:problem=kreska pseudotaktowa	!
!	!	!	!	!	!	!LO:TX:a:t=P:problem=# above	!
2D/	-re	.	.	1d\	-re-	2f#X\	.
*	*	*Xlig	*	*	*	*	*
=21-	=21-	=21-	=21-	=21-	=21-	=21-	=21-
*	*	*lig	*	*	*	*	*
1E-X\	no-	1G/	no-	.	.	1.g\	-bis
!	!	!	!	!LO:TX:t=P:problem=kreska pseudotaktowa	!	!	!
.	.	.	.	2c\	.	.	.
2D/	-bis	1A\	.	2d\	-re	.	.
!	!	!	!	!	!	!LO:N:acc=-	!
*	*ij	*	*	*	*	*	*ij
4AA/	mi-	.	.	1c\	no	2fn\	no-
!LO:TX:t=P:problem=kreska pseudotaktowa	!	!	!	!	!	!	!
4AA/	-ſe-	.	.	.	.	.	.
*	*	*Xlig	*	*	*	*	*
=22-	=22-	=22-	=22-	=22-	=22-	=22-	=22-
2C/	-re-	0G/	.	.	.	4e\	.
.	.	.	.	.	.	4c/	.
2BB-/	-re	.	.	2d\	.	1f\	.
!LO:TX:t=P:problem=kreska pseudotaktowa	!	!	!	!	!	!	!
1C/	no-	.	.	1c\	.	.	.
.	.	.	.	.	.	2e\	.
=23-	=23-	=23-	=23-	=23-	=23-	=23-	=23-
*	*	*custos:f	*	*	*	*	*
1FF/;	-bis	1A\;<	-bis.	1c\;<	bis.	1f\;<	-bis
*	*Xij	*	*	*	*	*	*Xij
!	!	!LO:LB:g=original	!	!LO:LB:g=original	!	!LO:LB:g=original	!
=24||-	=24||-	=24||-	=24||-	=24||-	=24||-	=24||-	=24||-
*k*	*	*k[b-]	*	*k[b-]	*	*k[b-]	*
*M2/1	*	*M2/1	*	*M2/1	*	*M2/1	*
*met(C|)	*	*met(C|)	*	*met(C|)	*	*met(C|)	*
2FF/	A-	1f\	A-	1A\	A-	1c\	A-
!LO:TX:t=P:problem=kreska pseudotaktowa	!	!	!	!	!	!	!
2FF/	-gnus	.	.	.	.	.	.
*	*	*lig	*	*	*	*	*
!	!	!	!	!LO:TX:t=P:problem=kreska pseudotaktowa	!	!	!
4BB-/	De-	1f\	-gnus	1B-\	-gnus	2d\	.
4C/	.	.	.	.	.	.	.
*	*	*	*	*	*	*lig	*
4D/	.	.	.	.	.	1d\	-gnus
!LO:TX:t=P:problem=kreska pseudotaktowa	!	!	!	!	!	!	!
4BB-/	.	.	.	.	.	.	.
=25-	=25-	=25-	=25-	=25-	=25-	=25-	=25-
4C/	.	1e\	.	2.G/	De-	.	.
4D/	.	.	.	.	.	.	.
4E\	.	.	.	.	.	1c\	.
!LO:TX:t=P:problem=kreska pseudotaktowa	!	!	!	!LO:TX:t=P:problem=kreska pseudotaktowa	!	!	!
4F\	.	.	.	4A/	.	.	.
*	*	*Xlig	*	*	*	*Xlig	*
*	*	*lig	*	*	*	*	*
4G\	.	1d\	.	4B-\	.	.	.
4A\	.	.	.	4c\	.	.	.
!	!	!	!	!	!	!LO:TX:t=P:problem=kreska pseudotaktowa	!
1B-\	.	.	.	4d\	.	2B-/	De-
!	!	!	!	!LO:TX:t=P:problem=kreska pseudotaktowa	!	!	!
.	.	.	.	4e-X\	.	.	.
=26-	=26-	=26-	=26-	=26-	=26-	=26-	=26-
!	!	!LO:TX:t=P:problem=kreska pseudotaktowa	!	!	!	!	!
.	.	1f\	.	2c\	.	1F/	.
4A\	.	.	.	2.F/	.	.	.
*custos:a	*	*	*	*	*	*	*
!LO:TX:t=P:problem=kreska pseudotaktowa	!	!	!	!	!	!	!
4G\	.	.	.	.	.	.	.
*	*	*Xlig	*	*	*	*	*
!LO:LB:g=original	!	!	!	!	!	!	!
*	*	*lig	*	*	*	*	*
4A\	.	1c\	De-	.	.	1f\	-i
4G\	.	.	.	4G/	.	.	.
!	!	!	!	!LO:TX:t=P:problem=kreska pseudotaktowa	!	!	!
4F\	.	.	.	2.A/	.	.	.
!LO:TX:t=P:problem=kreska pseudotaktowa	!	!	!	!	!	!	!
4E\	.	.	.	.	.	.	.
=27-	=27-	=27-	=27-	=27-	=27-	=27-	=27-
*	*	*	*	*	*	*lig	*
4D/	.	1d\	.	.	.	1f\	qui-
4C/	.	.	.	8B-\L	.	.	.
.	.	.	.	8c\J	.	.	.
4BB-/	.	.	.	4d\	.	.	.
!LO:TX:t=P:problem=kreska pseudotaktowa	!	!	!	!LO:TX:t=P:problem=kreska pseudotaktowa	!	!	!
4AA/	.	.	.	4c\	.	.	.
*	*	*Xlig	*	*	*	*	*
*	*	*lig	*	*	*	*	*
!	!	!	!	!	!	!LO:TX:t=P:problem=kreska pseudotaktowa	!
4GG/	.	1e\	-i	4B-\	.	1g\	.
4FF/	.	.	.	4A\	.	.	.
!LO:TX:t=P:problem=kreska pseudotaktowa	!	!	!	!	!	!	!
2GG/	.	.	.	2B-\	.	.	.
*	*	*	*	*	*	*Xlig	*
=28-	=28-	=28-	=28-	=28-	=28-	=28-	=28-
!LO:TX:t=P:problem=kreska pseudotaktowa	!	!LO:TX:t=P:problem=kreska pseudotaktowa	!	!	!	!	!
1FF/	-i	1f\	.	2A,/	-i	4c/	-tol-
.	.	.	.	.	.	2f\	.
!	!	!	!	!LO:TX:t=P:problem=kreska pseudotaktowa	!	!	!
.	.	.	.	2f\	qui	.	.
!	!	!	!	!	!	!LO:TX:t=P:problem=kreska pseudotaktowa	!
.	.	.	.	.	.	4c/	-lis
*	*	*Xlig	*	*	*	*	*
*	*	*lig	*	*	*	*	*
2F\	A-	1f\	qui-	4c\	.	4.A/	pec-
.	.	.	.	4A\	.	.	.
.	.	.	.	.	.	8F/	-ca-
!LO:TX:t=P:problem=kreska pseudotaktowa	!	!	!	!	!	!LO:TX:t=P:problem=kreska pseudotaktowa	!
2D/	.	.	.	8d\L	tol-	2B-/	-ta
.	.	.	.	8e\J	.	.	.
.	.	.	.	2f\	.	.	.
=29-	=29-	=29-	=29-	=29-	=29-	=29-	=29-
2F\	-gnus	1c\	.	.	.	8A/L	pec-
.	.	.	.	.	.	8B-/	.
.	.	.	.	4F/	.	8c/	.
.	.	.	.	.	.	8d/J	.
!LO:TX:t=P:problem=kreska pseudotaktowa	!	!	!	!LO:TX:t=P:problem=kreska pseudotaktowa	!	!	!
2E\	De-	.	.	2G/	.	8e\L	.
.	.	.	.	.	.	8f\	.
.	.	.	.	.	.	8g\	.
!	!	!	!	!	!	!LO:TX:t=P:problem=kreska pseudotaktowa	!
.	.	.	.	.	.	8e\J	.
*	*	*Xlig	*	*	*	*	*
*	*	*lig	*	*	*	*	*
2F\	.	1A\	.	1F/	-lis	8a\L	.
.	.	.	.	.	.	8g\J	.
.	.	.	.	.	.	4.f\	.
1D\	.	.	.	.	.	.	.
.	.	.	.	.	.	8e\	.
.	.	.	.	.	.	8d\L	.
!	!	!	!	!	!	!LO:TX:t=P:problem=kreska pseudotaktowa	!
.	.	.	.	.	.	8e\J	.
=30-	=30-	=30-	=30-	=30-	=30-	=30-	=30-
!	!	!LO:TX:t=P:problem=kreska pseudotaktowa	!	!	!	!	!
.	.	1F/	.	2A\	pec-	[2f\	.
!LO:TX:t=P:problem=kreska pseudotaktowa	!	!	!	!	!	!	!
2BB-/	.	.	.	2.B-\	-ca-	8f\L]	.
.	.	.	.	.	.	8d\	.
.	.	.	.	.	.	8e\	.
.	.	.	.	.	.	8f\J	.
*	*	*Xlig	*	*	*	*	*
*	*	*lig	*	*	*	*	*
4GG/	.	1B-\	-tol-	.	.	4g\	.
4AA/	.	.	.	4c\	.	8f\L	.
.	.	.	.	.	.	8e\J	.
4BB-/	.	.	.	1d\	.	4d\	.
!LO:TX:t=P:problem=kreska pseudotaktowa	!	!	!	!	!	!	!
4C/	.	.	.	.	.	4e\	.
=31-	=31-	=31-	=31-	=31-	=31-	=31-	=31-
4D/	.	1A\	.	.	.	1f\	.
4E/	.	.	.	.	.	.	.
1F\	.	.	.	2c\	.	.	.
*	*	*Xlig	*	*	*	*	*
*	*	*lig	*	*	*	*	*
*	*	*	*	*	*	*custos:g	*
!	!	!	!	!LO:TX:a:t=P:problem=n above	!	!LO:TX:t=P:problem=kreska pseudotaktowa	!
!	!	!	!	!LO:N:acc=#	!	!	!
.	.	1G/	.	2BnX\	.	[1g\	.
!LO:TX:t=P:problem=kreska pseudotaktowa	!	!	!	!	!	!	!
2E\	.	.	.	1.c\	.	.	.
!	!	!	!	!	!	!LO:PB:g=original	!
=32-	=32-	=32-	=32-	=32-	=32-	=32-	=32-
2F,\	-i	1A\	.	.	.	2g\]	.
!LO:TX:t=P:problem=kreska pseudotaktowa	!	!	!	!	!	!	!
2AA/	qui	.	.	.	.	1f\	-ta
*	*	*Xlig	*	*	*	*	*
2BB-/	tol-	1G/	.	2d\	.	.	.
!LO:TX:t=P:problem=kreska pseudotaktowa	!	!	!	!	!	!	!
2C/	.	.	.	4c\	.	2e\	mun-
*	*	*	*	*custos:a	*	*	*
!	!	!	!	!LO:TX:t=P:problem=kreska pseudotaktowa	!	!	!
.	.	.	.	4B-\	.	.	.
!	!	!	!	!LO:PB:g=original	!	!	!
=33-	=33-	=33-	=33-	=33-	=33-	=33-	=33-
!	!	!LO:TX:t=P:problem=kreska pseudotaktowa	!	!	!	!	!
2.D/	-lis	1F/	-lis	4A/	.	4f\	.
.	.	.	.	4D/	.	4f\	-di
!	!	!	!	!LO:TX:t=P:problem=kreska pseudotaktowa	!	!	!
.	.	.	.	2d\	-ca-	8a\L	pec-
.	.	.	.	.	.	8b-\	.
4E\	pec-	.	.	.	.	8a\	.
!	!	!	!	!	!	!LO:TX:t=P:problem=kreska pseudotaktowa	!
.	.	.	.	.	.	8g\J	.
!	!	!	!	!	!	!LO:SIC:s=1	!
!LO:TX:t=P:problem=kreska pseudotaktowa	!	!	!	!	!	!LO:N:vis=1	!
1F\	.	1A\	pec-	4c\	-ta	0f\	-ca-
.	.	.	.	4A\	.	.	.
.	.	.	.	8c\L	mun-	.	.
.	.	.	.	8d\	.	.	.
.	.	.	.	8c\	.	.	.
!	!	!	!	!LO:TX:t=P:problem=kreska pseudotaktowa	!	!	!
.	.	.	.	8B-\J	.	.	.
=34-	=34-	=34-	=34-	=34-	=34-	=34-	=34-
*	*	*	*	*lig	*	*	*
4F\	-ca-	1c\	-ca-	1A\	.	.	.
4FF/	-ta	.	.	.	.	.	.
8AA/L	pec-	.	.	.	.	.	.
8GG/	.	.	.	.	.	.	.
8AA/	-ca-	.	.	.	.	.	.
*custos:c	*	*	*	*	*	*	*
!LO:TX:t=P:problem=kreska pseudotaktowa	!	!	!	!	!	!	!
8BB-/J	.	.	.	.	.	.	.
!LO:LB:g=original	!	!LO:TX:t=P:problem=kreska pseudotaktowa	!	!	!	!	!
4.C/	.	1c\	-ta	1G/	.	2e-X\	-ta
8D/	.	.	.	.	.	.	.
!	!	!	!	!	!	!LO:TX:t=P:problem=kreska pseudotaktowa	!
8E-X\L	.	.	.	.	.	2e-\	pec-
8D\	.	.	.	.	.	.	.
8E-\	.	.	.	.	.	.	.
!LO:TX:t=P:problem=kreska pseudotaktowa	!	!	!	!	!	!	!
8C\J	.	.	.	.	.	.	.
*	*	*	*	*Xlig	*	*	*
=35-	=35-	=35-	=35-	=35-	=35-	=35-	=35-
!	!	!	!	!LO:TX:t=P:problem=kreska pseudotaktowa	!	!LO:TX:a:t=P:problem=n above	!
!	!	!	!	!	!	!LO:N:acc=#	!
2.G\	.	1.d\	mun-	1G/	-di	2Bn/	-ca-
!	!	!	!	!	!	!LO:TX:t=P:problem=kreska pseudotaktowa	!
.	.	.	.	.	.	2B/	-ta
!LO:TX:t=P:problem=kreska pseudotaktowa	!	!	!	!	!	!	!
4F\	.	.	.	.	.	.	.
*	*	*	*	*	*	*lig	*
2.E-X\	-ta	.	.	0G/	Do-	1e-X\	mun-
.	.	1c\	.	.	.	.	.
!LO:TX:t=P:problem=kreska pseudotaktowa	!	!	!	!	!	!	!
4C/	.	.	.	.	.	.	.
=36-	=36-	=36-	=36-	=36-	=36-	=36-	=36-
1G\	mun-	.	.	.	.	1d\	.
!	!	!LO:TX:a:t=P:problem=n above	!	!	!	!	!
!	!	!LO:N:acc=#	!	!	!	!	!
.	.	2BnX\	.	.	.	.	.
*	*	*	*	*	*	*Xlig	*
*	*	*custos:f	*	*	*	*	*
!	!	!LO:TX:t=P:problem=kreska pseudotaktowa	!	!	!	!	!
!	!	!	!	!LO:TX:t=P:problem=kreska pseudotaktowa	!	!	!
2C/	-di	1c\	-di	1G/	-na	4e\	-di
.	.	.	.	.	.	8.g\	Do-
.	.	.	.	.	.	16g\	-na
4.C/	Do-	.	.	.	.	4.e\	no-
!LO:TX:t=P:problem=kreska pseudotaktowa	!	!	!	!	!	!LO:TX:t=P:problem=kreska pseudotaktowa	!
8BB-/	-na	.	.	.	.	8d\	-bis
!	!	!LO:LB:g=original	!	!	!	!	!
=37-	=37-	=37-	=37-	=37-	=37-	=37-	=37-
2AA/	no-	4f\	Do-	2.A/	no-	4.c\	pa-
.	.	4c\	-na	.	.	.	.
.	.	.	.	.	.	16d\LL	.
.	.	.	.	.	.	16e\JJ	.
2FF/	-bis	4A/	.	.	.	1f\	.
!	!	!LO:TX:t=P:problem=kreska pseudotaktowa	!	!LO:TX:t=P:problem=kreska pseudotaktowa	!	!	!
.	.	4F/	-no-	4c\	-bis	.	.
*lig	*	*	*	*	*	*	*
1BB-/	pa-	4F/	-bis	8d\L	pa-	.	.
.	.	.	.	8c\J	.	.	.
.	.	4D/	.	4.B-\	.	.	.
!	!	!	!	!	!	!LO:TX:t=P:problem=kreska pseudotaktowa	!
.	.	8d\L	Pa-	.	.	2d\	.
.	.	8c\J	.	8A/L	.	.	.
*	*	*2\right	*	*	*	*	*
.	.	2B-\	.	8G/	.	.	.
!	!	!	!	!LO:TX:t=P:problem=kreska pseudotaktowa	!	!	!
.	.	.	.	8F/J	.	.	.
=38-	=38-	=38-	=38-	=38-	=38-	=38-	=38-
1C/	.	.	.	8E/	.	1c\	cem.
.	.	.	.	8C/	.	.	.
.	.	4A\	.	2F/	.	.	.
!	!	!LO:TX:t=P:problem=kreska pseudotaktowa	!	!	!	!	!
.	.	2G\	.	.	.	.	.
.	.	.	.	4E/	.	.	.
*Xlig	*	*	*	*	*	*	*
1FF/;	-c(em)	1A\;	-cem	1F/;	-cem.	1c\;	.
=-	=-	=-	=-	=-	=-	=-	=-
*-	*-	*-	*-	*-	*-	*-	*-
!!!system-decoration: [(s1,s2,s3,s4)]
!!!RDF**kern: > = above
!!!RDF**kern: < = below
!!!EED: Leszek Kubiak
!!!EEV: 2021-03-08
!!!ENC: Berenika Jozajtis
!!!END: 2021-02-22
!!!YEC: Copyright 2022 Narodowy Instytut Fryderyka Chopina (https://polishscores.org)
!!!YEM: Licence CC BY 4.0 (https://creativecommons.org/licenses/by/4.0)
